site/img/sg-mark.svg

<?xml version="1.0" encoding="UTF-8"?>
<svg width="146px" height="37px" viewBox="0 0 146 37" version="1.1" xmlns="http://www.w3.org/2000/svg" xmlns:xlink="http://www.w3.org/1999/xlink">
    <!-- Generator: Sketch 50.2 (55047) - http://www.bohemiancoding.com/sketch -->
    <title>Styleguide Heading</title>
    <desc>Created with Sketch.</desc>
    <defs></defs>
    <g id="Design" stroke="none" stroke-width="1" fill="none" fill-rule="evenodd">
        <g id="Mobile" transform="translate(-113.000000, -6.000000)">
            <g id="Header">
                <g id="Styleguide-Heading" transform="translate(113.000000, 6.000000)">
                    <g id="Logo" transform="translate(20.000000, 10.000000)" fill="#6B6B6B" font-family="AvenirNext-Medium, Avenir Next" font-size="14" font-weight="400" letter-spacing="4.66666603">
                        <text id="STYLEGUIDE">
                            <tspan x="0.383669846" y="14">STYLEGUIDE</tspan>
                        </text>
                    </g>
                    <g id="Wire-Logo" fill="#333435">
                        <g>
                            <path d="M8.91136713,11.605662 L10.9354979,18.2555562 L17.7170766,4.4505571 C17.9944022,3.87893463 18.0336935,3.23387885 17.8275051,2.63447354 C17.6219843,2.03707151 17.1973465,1.55426108 16.6316485,1.2747531 C16.297571,1.11248751 15.9430588,1.0302519 15.5778436,1.0302519 C14.6671224,1.0302519 13.853901,1.53944896 13.4555452,2.35917447 L13.4545741,2.36115751 L8.91136713,11.605662 Z M10.7138115,21.0012826 L7.8272339,11.5180034 L12.5460379,1.91620702 C12.8288869,1.33446699 13.2669994,0.850138924 13.8130721,0.515449714 C14.343505,0.190331724 14.9537549,0.0184949177 15.5778436,0.0184949177 C16.0978569,0.0184949177 16.6015224,0.135150498 17.0747989,0.365244272 L17.0773482,0.366478615 C17.8848639,0.764685929 18.4909863,1.45324726 18.7840932,2.305349 C19.078151,3.16022294 19.0220263,4.0798291 18.6259567,4.89475888 L18.625026,4.89670146 L10.7138115,21.0012826 Z M4.54561863,20.5039635 L1.2572255,27.2184281 C0.976237853,27.7885734 0.935570717,28.4339529 1.14218404,29.0367577 C1.34756319,29.6360416 1.77357673,30.118164 2.34172291,30.3943332 L2.34425196,30.3955473 C2.67223949,30.5572261 3.02329196,30.6392189 3.38763712,30.6392391 C3.82558778,30.6392594 4.25467664,30.5187793 4.62855126,30.2908305 C5.01294674,30.0564671 5.32068163,29.7174678 5.51849386,29.3104987 L6.56962803,27.152765 L4.54561863,20.5039635 Z M3.38771805,31.6509961 L3.38759666,31.6509961 C2.86705733,31.6509759 2.36575901,31.534037 1.89764184,31.3033766 C1.086464,30.9084677 0.478318349,30.2200682 0.185211488,29.36483 C-0.109331874,28.5053425 -0.0510827779,27.5846234 0.349296298,26.7722635 L4.7659293,17.754008 L7.65315428,27.2384608 L6.42812258,29.7532435 C6.1456175,30.3345182 5.70534012,30.8192914 5.15511985,31.1547293 C4.6225827,31.4794021 4.01144266,31.6509961 3.38771805,31.6509961 Z" id="Fill-1"></path>
                            <path d="M4.00624825,4.72564249 C3.77413245,4.72564249 3.54290753,4.76000387 3.31901215,4.8277547 C2.06764394,5.20658028 1.35878366,6.53681305 1.73892795,7.7930585 L4.78064926,17.754942 L7.84435921,11.512389 L6.28448188,6.4094512 C6.13420593,5.91296271 5.83288463,5.48985409 5.41269104,5.18452987 C5.00547601,4.88862111 4.50599374,4.72564249 4.00624825,4.72564249 Z M4.56062113,20.5010782 L0.770314209,8.08748913 C0.228150488,6.2957772 1.2400936,4.39932078 3.02572906,3.85875173 C3.34482754,3.76218755 3.67471788,3.71322714 4.00624825,3.71322714 C4.71810515,3.71322714 5.42894967,3.94486777 6.00778137,4.36548585 C6.60805504,4.80167488 7.03867602,5.40659305 7.25301463,6.11479783 L8.92947629,11.599153 L4.56062113,20.5010782 Z M7.67015087,27.263466 L9.80981152,34.3047944 C9.95978376,34.8004527 10.2610443,35.2234804 10.6811569,35.5287641 C11.0883315,35.8246121 11.5877732,35.9875705 12.0875187,35.9875907 L12.0875592,35.9875907 C12.319675,35.9875907 12.5508999,35.9532091 12.7748358,35.8854178 C13.3815481,35.7018061 13.8831159,35.2908667 14.1871706,34.728227 C14.491205,34.1656683 14.5580821,33.523635 14.3754711,32.9203974 L10.734286,21.0196778 L7.67015087,27.263466 Z M12.0875795,37.0000061 L12.0874782,37.0000061 C11.3756416,36.9999858 10.6648578,36.7683452 10.0860666,36.3478081 C9.48583342,35.9116596 9.05529343,35.3067819 8.84099531,34.5985771 L6.58545897,27.1758313 L10.953322,18.2754045 L15.3439836,32.6256428 C15.6058023,33.4906303 15.5111256,34.4077773 15.0777712,35.20959 C14.6458544,36.008811 13.9321348,36.5929341 13.0681189,36.8544207 C12.7490609,36.9510254 12.4191301,37.0000061 12.0875795,37.0000061 Z" id="Fill-4"></path>
                        </g>
                    </g>
                </g>
            </g>
        </g>
    </g>
</svg>

<svg width="146" height="37" viewBox="0 0 146 37" xmlns="http://www.w3.org/2000/svg"><title>Styleguide Heading</title><g fill="none" fill-rule="evenodd"><text transform="translate(20 10)" fill="#6B6B6B" font-family="AvenirNext-Medium, Avenir Next" font-size="14" font-weight="400" letter-spacing="4.667"><tspan x=".384" y="14">STYLEGUIDE</tspan></text><g fill="#333435"><path d="M8.911 11.606l2.024 6.65L17.717 4.45a2.37 2.37 0 0 0 .11-1.817 2.365 2.365 0 0 0-2.25-1.604c-.91 0-1.723.51-2.121 1.33l-.001.001-4.544 9.245zM10.714 21l-2.887-9.483 4.719-9.602A3.362 3.362 0 0 1 15.578.018c.52 0 1.024.117 1.497.347l.002.001a3.37 3.37 0 0 1 1.707 1.94 3.375 3.375 0 0 1-.158 2.589l-.001.002L10.714 21zm-6.168-.497l-3.289 6.714a2.356 2.356 0 0 0-.115 1.819c.206.599.632 1.081 1.2 1.357l.002.002a2.34 2.34 0 0 0 1.044.243c.438 0 .867-.12 1.24-.348.385-.235.693-.574.89-.98l1.052-2.158-2.024-6.649zM3.388 31.651c-.52 0-1.022-.117-1.49-.348a3.348 3.348 0 0 1-1.713-1.938 3.36 3.36 0 0 1 .164-2.593l4.417-9.018 2.887 9.484-1.225 2.515a3.356 3.356 0 0 1-1.273 1.402 3.394 3.394 0 0 1-1.767.496z"/><path d="M4.006 4.726A2.371 2.371 0 0 0 1.74 7.793l3.042 9.962 3.063-6.243-1.56-5.103a2.34 2.34 0 0 0-.871-1.224 2.411 2.411 0 0 0-1.407-.46zM4.561 20.5L.77 8.087a3.383 3.383 0 0 1 5.237-3.722c.6.437 1.03 1.042 1.245 1.75l1.676 5.484-4.368 8.902zm3.11 6.762l2.139 7.042c.15.495.451.918.871 1.224a2.37 2.37 0 0 0 2.094.357 2.382 2.382 0 0 0 1.412-1.158c.304-.562.371-1.204.188-1.808l-3.64-11.9-3.065 6.243zM12.087 37a3.432 3.432 0 0 1-2.002-.652 3.343 3.343 0 0 1-1.245-1.75l-2.256-7.422 4.368-8.9 4.391 14.35a3.353 3.353 0 0 1-.266 2.584 3.388 3.388 0 0 1-2.99 1.79z"/></g></g></svg>
